X:1
T:1. Freut euch des Lebens.
T:1. Freut euch des Lebens.
T:Ge\. v. H. Langer.
C:Bes. v. H. Langer.
%%score { ( 1 2 ) | ( 3 4 ) }
L:1/8
Q:1/4=80
M:6/8
K:F
V:1 treble nm="Piano" snm="Pno."
V:2 treble 
V:3 bass 
V:4 bass 
V:1
"^Leicht bewegt."!f! A3 BA B | (c2 f) f2 z | F3 GF G | AB A G2 z | A3 BA B | (c2 f) f2 z | %6
w: reut euch * des|Le- * bens,|weil noch * das|Lämp- * chen glüht,|1.~pßü- det * die|Ro- * se,|
w: ||||||
 A3 GF G | F3 z2!fine! |:!mf!"^Solo." c | c2 B GA B | c2 A F2 :| c | d2 B f2 d | c2 A f2 c | %14
w: eh sie * ver-|blüht.|Man|schasst so gern * sich|Sorg' und Müh'|und|läßt das Beil- chen|un- be- merst, das|
w: ||sucht|Dor- nen auf * und|sin- det sie,||||
 cd c cB A | (A3 G2) z!D.C.! |] %16
w: uns * am We- * ge|blüht. *|
w: ||
V:2
 F3 GF G | A3 A2 x | C3 C2 C | F2 F E2 x | F3 F2 F | F3 A2 x | F3 C2 C | C3 x2 |: C | A2 G EF G | %10
 A2 F C2 :| F | F2 F F2 F | F2 F A2 A | F2 F F2 F | (F3 E2) x |] %16
V:3
 C3 C2 C | C3 C2 z | A,3 B,A, B, | CD C C2 z | C3 C2 C | C3 C2 z | C3 B,A, B, | A,3 z2 |: C | %9
 C2 C C2 C | %10
"_GOTTFRIED, Wilhelm Fink, HERMANN, Langer, ed. \nMusikalischer Hausschatz der Deutschen: \nEine Sammlung von 1000 Liedern und Gesängen mit Singweisen und Klavierbegleitung\n. Neunte Auflage. \nHamburg: Haendcke und Lehmkuhl, 1878, 744 Seiten. \nDostupné také z: https://imslp.org/wiki/Special:ReverseLookup/514655.\n" F,2 F, A,2 :| %11
 A, | B,2 D B,2 B, | A,2 C C2 C | A,B, A, A,D C | C3- C2 z |] %16
V:4
 F,3 F,2 F, | F,3 F,2 x | F,3 C,2 C, | F,2 F, C,2 x | F,3 G,F, G, | A,3 F,2 x | C3 C,2 C, | %7
 F,,3 x2 |: z | z6 | z2 z z2 :| F, | B,,2 B,, D,2 B,, | F,2 F, F,2 F, | F,2 F, F,2 F, | %15
 (C3 C,2) x |] %16

